!!!COM: John Williams
!!!OTL: Anakin and Padme Basic
!!!GAW: Star Wars: Episode II
!!!ODT: 2002
!!!OCL: Frank Lehman
!!!ENC: Claire Arthur
!!!ENC2: John McNamara
**kern	**harte	**harm	**altharm	**cadence
*clefG2	*	*	*	*
*k[b-]	*k[b-]	*k[b-]	*	*
*d:	*d:	*d:	*	*
*M12/8	*M12/8	*M12/8	*	*
*MM113  *MM113   *MM113   *   *   *				
4.a	.	.	.	.
=1	=1	=1	=1	=1
[2.ff	D:min	i	.	.
4.ff]	.	.	.	.
4.dd	.	.	.	.
=2	=2	=2	=2	=2
*M9/8	*M9/8	*M9/8	*	*
8ggL	G:min/5	ivc	.	.
8ff	.	.	.	.
8eeJ	.	.	.	.
4.ff	D:min	i	.	.
4.dd	.	.	.	.
=3	=3	=3	=3	=3
8ffL	.	i	.	.
8ee	.	.	.	.
8ddJ	.	.	.	.
4.ee	A:min/5	vc	.	.
4.cc	.	.	.	.
=4	=4	=4	=4	=4
2.dd	Bb/5	VIc	.	.
4.cc	A:min	v	.	HC//
=5	=5	=5	=5	=5
2.a	F	III	.	.
4.a	A/5	Vc	.	.
=6	=6	=6	=6	=6
2.ff	D:min	i	.	.
4.dd	.	.	.	.
=7	=7	=7	=7	=7
8ddL	E:min7(D5)/D5	ii/7c	.	.
8ee	.	.	.	.
8ffJ	.	.	.	.
4.gg	.	.	.	.
4.ee	.	.	.	.
=8	=8	=8	=8	=8
4.aa	D:min/5	ic	var1 C64	.
2.gg	Eb	-II	.	.
=9	=9	=9	=9	=9
2.aa	D:min	i	.	MC
4.r	.	.	.	]]
=	=	=	=	=
*-	*-	*-	*-	*-
